outputs/icons/editor/indent_increase_round.svg

<svg xmlns="http://www.w3.org/2000/svg" width="1200" height="1200" fill="none"><g clip-path="url(#a)"><path fill="#000" d="M200 1050h800c27.5 0 50-22.5 50-50s-22.5-50-50-50H200c-27.5 0-50 22.5-50 50s22.5 50 50 50m-50-589.5V740c0 22.5 27 33.5 42.5 17.5L332 618c10-10 10-25.5 0-35.5l-139.5-140C177 427 150 438 150 460.5M600 850h400c27.5 0 50-22.5 50-50s-22.5-50-50-50H600c-27.5 0-50 22.5-50 50s22.5 50 50 50M150 200c0 27.5 22.5 50 50 50h800c27.5 0 50-22.5 50-50s-22.5-50-50-50H200c-27.5 0-50 22.5-50 50m450 250h400c27.5 0 50-22.5 50-50s-22.5-50-50-50H600c-27.5 0-50 22.5-50 50s22.5 50 50 50m0 200h400c27.5 0 50-22.5 50-50s-22.5-50-50-50H600c-27.5 0-50 22.5-50 50s22.5 50 50 50"/></g><defs><clipPath id="a"><path fill="#fff" d="M0 0h1200v1200H0z"/></clipPath></defs></svg>

<svg width="1200" height="1200" viewBox="0 0 1200 1200" fill="none" xmlns="http://www.w3.org/2000/svg"><g clip-path="url(#clip0_238_251)"><path d="M200 1050H1000C1027.5 1050 1050 1027.5 1050 1000C1050 972.5 1027.5 950 1000 950H200C172.5 950 150 972.5 150 1000C150 1027.5 172.5 1050 200 1050ZM150 460.5V740C150 762.5 177 773.5 192.5 757.5L332 618C342 608 342 592.5 332 582.5L192.5 442.5C177 427 150 438 150 460.5ZM600 850H1000C1027.5 850 1050 827.5 1050 800C1050 772.5 1027.5 750 1000 750H600C572.5 750 550 772.5 550 800C550 827.5 572.5 850 600 850ZM150 200C150 227.5 172.5 250 200 250H1000C1027.5 250 1050 227.5 1050 200C1050 172.5 1027.5 150 1000 150H200C172.5 150 150 172.5 150 200ZM600 450H1000C1027.5 450 1050 427.5 1050 400C1050 372.5 1027.5 350 1000 350H600C572.5 350 550 372.5 550 400C550 427.5 572.5 450 600 450ZM600 650H1000C1027.5 650 1050 627.5 1050 600C1050 572.5 1027.5 550 1000 550H600C572.5 550 550 572.5 550 600C550 627.5 572.5 650 600 650Z" fill="black"/></g><defs><clipPath id="clip0_238_251"><path width="24" fill="white" d="M0 0H1200V1200H0V0z"/></clipPath></defs></svg>
